img/icon/appStore.svg

<svg width="121" height="36" viewBox="0 0 121 36" fill="none" xmlns="http://www.w3.org/2000/svg">
<g clip-path="url(#clip0_0_64)">
<path d="M0 4.8C0 2.14903 2.14125 0 4.78261 0H116.217C118.859 0 121 2.14903 121 4.8V31.2C121 33.851 118.859 36 116.217 36H4.78261C2.14125 36 0 33.851 0 31.2V4.8Z" fill="black"/>
<path fill-rule="evenodd" clip-rule="evenodd" d="M0 31.2V4.8C0 2.14903 2.14125 0 4.78261 0H116.217C118.859 0 121 2.14903 121 4.8V31.2C121 33.851 118.859 36 116.217 36H4.78261C2.14125 36 0 33.851 0 31.2ZM0.717391 31.2V4.8C0.717391 2.54669 2.53746 0.72 4.78261 0.72H116.217C118.463 0.72 120.283 2.54669 120.283 4.8V31.2C120.283 33.4534 118.463 35.28 116.217 35.28H4.78261C2.53746 35.28 0.717391 33.4534 0.717391 31.2Z" fill="white" fill-opacity="0.3"/>
<path d="M27.3434 18.7331C27.3309 16.6232 28.2834 15.033 30.207 13.8604C29.1311 12.3136 27.5036 11.4628 25.3581 11.2988C23.3267 11.1379 21.1042 12.4868 20.2904 12.4868C19.4304 12.4868 17.4637 11.3545 15.9163 11.3545C12.7228 11.404 9.32889 13.9099 9.32889 19.0084C9.32889 20.5151 9.60324 22.0713 10.1519 23.6738C10.8856 25.7838 13.5304 30.9534 16.2893 30.8699C17.7319 30.8358 18.7522 29.8427 20.6295 29.8427C22.4513 29.8427 23.3945 30.8699 25.0037 30.8699C27.7872 30.8296 30.1792 26.1304 30.8758 24.014C27.143 22.2476 27.3434 18.8414 27.3434 18.7331ZM24.1034 9.29717C25.6663 7.43472 25.5245 5.73936 25.4784 5.12988C24.0974 5.21033 22.5006 6.07347 21.5912 7.13463C20.5894 8.27314 20.0007 9.68079 20.127 11.2679C21.619 11.3824 22.9815 10.612 24.1034 9.29717Z" fill="white"/>
<path d="M44.1803 26.0516H42.597L41.7297 23.3038H38.7155L37.8893 26.0516H36.3478L39.3343 16.697H41.179L44.1803 26.0516ZM41.4683 22.151L40.684 19.7084C40.6013 19.4588 40.4456 18.8712 40.2163 17.9461H40.1885C40.0972 18.344 39.9501 18.9316 39.7478 19.7084L38.9776 22.151H41.4683Z" fill="white"/>
<path d="M51.8607 22.5959C51.8607 23.7431 51.5534 24.6499 50.9384 25.3156C50.3876 25.9082 49.7037 26.2041 48.8873 26.2041C48.0061 26.2041 47.3732 25.8849 46.9877 25.2467H46.9597V28.7999H45.4735V21.5268C45.4735 20.8055 45.4546 20.0654 45.4185 19.3062H46.7256L46.8086 20.3754H46.8363C47.332 19.5698 48.0843 19.1677 49.0937 19.1677C49.8828 19.1677 50.5416 19.4819 51.0687 20.111C51.5972 20.7409 51.8607 21.5689 51.8607 22.5959ZM50.3465 22.6507C50.3465 21.9942 50.2002 21.4529 49.906 21.027C49.5846 20.5827 49.153 20.3606 48.6121 20.3606C48.2453 20.3606 47.9122 20.4843 47.6145 20.7282C47.316 20.9743 47.1209 21.2955 47.0295 21.6933C46.9836 21.8789 46.9604 22.0308 46.9604 22.1503V23.2749C46.9604 23.7656 47.1096 24.1797 47.4081 24.5176C47.7065 24.8558 48.0941 25.0245 48.571 25.0245C49.1308 25.0245 49.5665 24.8066 49.8781 24.3722C50.1904 23.9371 50.3465 23.3635 50.3465 22.6507Z" fill="white"/>
<path d="M59.5554 22.5959C59.5554 23.7431 59.2479 24.6499 58.6324 25.3156C58.0824 25.9082 57.3985 26.2041 56.5821 26.2041C55.7009 26.2041 55.0679 25.8849 54.6832 25.2467H54.6552V28.7999H53.169V21.5268C53.169 20.8055 53.1501 20.0654 53.1137 19.3062H54.4211L54.5038 20.3754H54.5318C55.0268 19.5698 55.7791 19.1677 56.7892 19.1677C57.5776 19.1677 58.2364 19.4819 58.7649 20.111C59.2912 20.7409 59.5554 21.5689 59.5554 22.5959ZM58.0413 22.6507C58.0413 21.9942 57.8942 21.4529 57.6001 21.027C57.2787 20.5827 56.8485 20.3606 56.3068 20.3606C55.9393 20.3606 55.6069 20.4843 55.3085 20.7282C55.01 20.9743 54.8156 21.2955 54.7243 21.6933C54.6788 21.8789 54.6552 22.0308 54.6552 22.1503V23.2749C54.6552 23.7656 54.8044 24.1797 55.1014 24.5176C55.3998 24.8551 55.7875 25.0245 56.2657 25.0245C56.8255 25.0245 57.2612 24.8066 57.5728 24.3722C57.8851 23.9371 58.0413 23.3635 58.0413 22.6507Z" fill="white"/>
<path d="M68.1584 23.4284C68.1584 24.224 67.8844 24.8715 67.3344 25.3712C66.7301 25.9174 65.8886 26.1901 64.8072 26.1901C63.8089 26.1901 63.0085 25.9961 62.4028 25.6073L62.7471 24.3584C63.3997 24.7563 64.1157 24.9557 64.8957 24.9557C65.4555 24.9557 65.8912 24.8278 66.2042 24.5734C66.5158 24.319 66.6715 23.9774 66.6715 23.5514C66.6715 23.1718 66.5431 22.852 66.2858 22.5926C66.0299 22.3332 65.6026 22.0921 65.0059 21.8693C63.3815 21.2584 62.5702 20.3636 62.5702 19.1869C62.5702 18.4179 62.8545 17.7874 63.4241 17.2967C63.9916 16.8054 64.7486 16.5601 65.6954 16.5601C66.5397 16.5601 67.2409 16.7084 67.8007 17.0043L67.4293 18.226C66.9063 17.9392 66.3152 17.7958 65.6535 17.7958C65.1308 17.7958 64.7221 17.9259 64.4294 18.1845C64.1819 18.4158 64.0578 18.6977 64.0578 19.0316C64.0578 19.4013 64.1994 19.7071 64.4837 19.9475C64.7312 20.1696 65.181 20.41 65.8333 20.6694C66.6316 20.9934 67.2179 21.3723 67.595 21.8067C67.9709 22.2397 68.1584 22.7817 68.1584 23.4284Z" fill="white"/>
<path d="M73.0723 20.4311H71.434V23.706C71.434 24.5391 71.7226 24.9552 72.3013 24.9552C72.567 24.9552 72.7873 24.9319 72.9616 24.8856L73.0027 26.0237C72.7098 26.1339 72.3243 26.1895 71.8468 26.1895C71.2597 26.1895 70.801 26.0088 70.4698 25.6483C70.1401 25.2869 69.9744 24.6809 69.9744 23.8298V20.4297H68.9982V19.305H69.9744V18.07L71.434 17.6257V19.305H73.0723V20.4311Z" fill="white"/>
<path d="M80.4643 22.6234C80.4643 23.6602 80.1701 24.5114 79.5831 25.1772C78.9676 25.8624 78.1505 26.2041 77.132 26.2041C76.1504 26.2041 75.3689 25.8758 74.7861 25.2192C74.2031 24.5628 73.9119 23.734 73.9119 22.7351C73.9119 21.6899 74.2115 20.8337 74.8132 20.168C75.4134 19.5016 76.2235 19.1685 77.242 19.1685C78.2236 19.1685 79.0135 19.4967 79.6096 20.154C80.18 20.7915 80.4643 21.6147 80.4643 22.6234ZM78.9221 22.6719C78.9221 22.0498 78.7904 21.5162 78.5235 21.0713C78.2119 20.5329 77.7664 20.2643 77.1891 20.2643C76.5916 20.2643 76.1377 20.5336 75.8261 21.0713C75.5592 21.517 75.4275 22.0589 75.4275 22.7C75.4275 23.3221 75.5592 23.8556 75.8261 24.2997C76.1475 24.8383 76.5966 25.1068 77.1758 25.1068C77.7434 25.1068 78.1887 24.8328 78.5101 24.2858C78.7841 23.8324 78.9221 23.2932 78.9221 22.6719Z" fill="white"/>
<path d="M85.2954 20.6242C85.1484 20.5968 84.9915 20.5827 84.827 20.5827C84.304 20.5827 83.8999 20.7817 83.6153 21.1802C83.3678 21.5317 83.2437 21.9759 83.2437 22.5122V26.0515H81.7582L81.7721 21.4304C81.7721 20.653 81.7532 19.9452 81.7164 19.3069H83.0108L83.0653 20.5975H83.1064C83.2633 20.1539 83.5108 19.7968 83.8497 19.529C84.1806 19.2879 84.5383 19.1677 84.9238 19.1677C85.0613 19.1677 85.1852 19.1776 85.2954 19.1951V20.6242Z" fill="white"/>
<path d="M91.9423 22.3599C91.9423 22.6284 91.9251 22.8548 91.8881 23.0396H87.429C87.4464 23.706 87.6619 24.2156 88.0761 24.5672C88.4517 24.8814 88.9377 25.0388 89.5345 25.0388C90.1948 25.0388 90.7969 24.9327 91.3388 24.7196L91.5714 25.76C90.9385 26.0384 90.1912 26.1769 89.3289 26.1769C88.2915 26.1769 87.4773 25.869 86.8847 25.2538C86.2934 24.6387 85.9971 23.8129 85.9971 22.7768C85.9971 21.7596 86.2726 20.9126 86.824 20.2371C87.4012 19.5159 88.1813 19.1553 89.1629 19.1553C90.1271 19.1553 90.8569 19.5159 91.3526 20.2371C91.745 20.81 91.9423 21.5185 91.9423 22.3599ZM90.5252 21.9712C90.5348 21.5269 90.438 21.1431 90.2366 20.8191C89.9793 20.4023 89.584 20.1942 89.052 20.1942C88.566 20.1942 88.1708 20.3973 87.869 20.805C87.6215 21.1291 87.4744 21.5178 87.429 21.9705H90.5252V21.9712Z" fill="white"/>
<path d="M37.8797 10.7887H38.6456C39.3855 10.7887 39.8191 11.1225 39.8191 11.685V11.6925C39.8191 12.2137 39.363 12.555 38.6681 12.555C37.9581 12.555 37.5062 12.2737 37.4464 11.775L37.4426 11.745H36.6243L36.6281 11.79C36.684 12.6825 37.4763 13.29 38.6681 13.29C39.8226 13.29 40.6747 12.6225 40.6747 11.73V11.7225C40.6747 10.995 40.2299 10.4812 39.5089 10.3912V10.3612C40.1067 10.2225 40.5101 9.71999 40.5101 9.11999V9.1125C40.5101 8.27624 39.7703 7.69873 38.6868 7.69873C37.5583 7.69873 36.8223 8.25747 36.7663 9.1725L36.7625 9.22499H37.566L37.5695 9.1725C37.6332 8.70747 38.0256 8.43373 38.6607 8.43373C39.3071 8.43373 39.6808 8.7225 39.6808 9.2025V9.20999C39.6808 9.72747 39.2659 10.0837 38.6234 10.0837H37.8797V10.7887Z" fill="white"/>
<path d="M43.3809 13.2712C43.9039 13.2712 44.3561 13.0012 44.584 12.5774H44.6026V13.1999H45.4097V10.4812C45.4097 9.68993 44.8006 9.17993 43.8405 9.17993C42.8728 9.17993 42.2862 9.70119 42.23 10.3799L42.2264 10.4212H42.9885L42.9959 10.3874C43.0633 10.0724 43.351 9.85119 43.818 9.85119C44.3188 9.85119 44.6026 10.1137 44.6026 10.5487V10.8449L43.5304 10.9087C42.5999 10.9649 42.0693 11.3849 42.0693 12.0712V12.0787C42.0693 12.7874 42.5961 13.2712 43.3809 13.2712ZM42.884 12.0599V12.0524C42.884 11.7187 43.153 11.5049 43.6387 11.4749L44.6026 11.4149V11.7224C44.6026 12.2362 44.1693 12.6224 43.6014 12.6224C43.1678 12.6224 42.884 12.4049 42.884 12.0599Z" fill="white"/>
<path d="M49.7076 9.89988V9.25488H47.1034V13.1999H47.9105V9.89988H49.7076Z" fill="white"/>
<path d="M51.2256 14.5124H52.0326V12.5362H52.0513C52.283 12.9937 52.7352 13.2787 53.2919 13.2787C54.2783 13.2787 54.9247 12.4874 54.9247 11.2312V11.2274C54.9247 9.96742 54.2819 9.17993 53.2806 9.17993C52.7201 9.17993 52.2868 9.46493 52.0513 9.93368H52.0326V9.25493H51.2256V14.5124ZM53.0714 12.5812C52.4623 12.5812 52.029 12.0487 52.029 11.2312V11.2274C52.029 10.4062 52.4585 9.87368 53.0714 9.87368C53.7065 9.87368 54.1025 10.3874 54.1025 11.2274V11.2312C54.1025 12.0637 53.7065 12.5812 53.0714 12.5812Z" fill="white"/>
<path d="M56.82 14.5161C57.5898 14.5161 58.0008 14.2011 58.2923 13.3836L59.757 9.25488H58.905L57.9147 12.4649H57.8887L56.8984 9.25488H56.0242L57.4554 13.2036L57.3879 13.3911C57.2535 13.7736 57.0443 13.8749 56.6631 13.8749C56.5548 13.8749 56.4613 13.8599 56.3979 13.8449V14.4786C56.495 14.4974 56.6631 14.5161 56.82 14.5161Z" fill="white"/>
<path d="M62.5305 13.2787C63.4944 13.2787 64.1334 12.7874 64.1334 12.0524V12.0449C64.1334 11.5837 63.8493 11.2687 63.3299 11.1637V11.1337C63.7522 11.0362 64.025 10.7024 64.025 10.2787V10.2712C64.025 9.59619 63.4719 9.17993 62.5678 9.17993C61.6823 9.17993 61.1031 9.59993 61.0096 10.3012L61.006 10.3312H61.7756L61.7794 10.3049C61.8392 10.0049 62.1342 9.82119 62.5565 9.82119C62.9824 9.82119 63.2366 10.0199 63.2366 10.3574V10.3649C63.2366 10.7174 62.9937 10.8974 62.5192 10.8974H61.9549V11.4862H62.5228C63.0685 11.4862 63.3299 11.6662 63.3299 12.0449V12.0524C63.3299 12.4124 63.0236 12.6337 62.5267 12.6337C62.0821 12.6337 61.7906 12.4612 61.7009 12.1424L61.6897 12.1049H60.8975L60.9013 12.1387C60.9797 12.8362 61.6113 13.2787 62.5305 13.2787Z" fill="white"/>
<path d="M65.6851 13.1999H66.4809L68.2854 10.4286H68.3191V13.1999H69.1223V9.25488H68.3265L66.522 12.0149H66.4845V9.25488H65.6851V13.1999Z" fill="white"/>
<path d="M73.8201 9.25488H70.5509V9.89988H71.78V13.1999H72.5909V9.89988H73.8201V9.25488Z" fill="white"/>
<path d="M76.8551 13.2787C77.808 13.2787 78.4171 12.7087 78.5402 12.0824L78.5515 12.0412H77.7817L77.7707 12.0712C77.6698 12.3674 77.3522 12.6149 76.874 12.6149C76.2312 12.6149 75.824 12.1799 75.8089 11.4337H78.5926V11.1599C78.5926 9.97493 77.9163 9.17993 76.8142 9.17993C75.7118 9.17993 75.0018 10.0049 75.0018 11.2387V11.2424C75.0018 12.4874 75.7006 13.2787 76.8551 13.2787ZM76.8178 9.84368C77.3446 9.84368 77.7296 10.1774 77.793 10.8599H75.8201C75.895 10.1999 76.2948 9.84368 76.8178 9.84368Z" fill="white"/>
<path d="M82.5253 13.1999H84.3339C85.1857 13.1999 85.7163 12.7574 85.7163 12.0674V12.0599C85.7163 11.5761 85.3801 11.2236 84.8719 11.1561V11.1261C85.2493 11.0549 85.5408 10.6836 85.5408 10.2749V10.2674C85.5408 9.64114 85.0773 9.25488 84.3114 9.25488H82.5253V13.1999ZM83.325 10.8824V9.85488H84.1433C84.5319 9.85488 84.7411 10.0311 84.7411 10.3574V10.3649C84.7411 10.7136 84.5168 10.8824 84.061 10.8824H83.325ZM83.325 12.5999V11.4711H84.0909C84.6216 11.4711 84.8867 11.6474 84.8867 12.0261V12.0336C84.8867 12.4086 84.6402 12.5999 84.1844 12.5999H83.325Z" fill="white"/>
</g>
<defs>
<clipPath id="clip0_0_64">
<rect width="121" height="36" fill="white"/>
</clipPath>
</defs>
</svg>

<svg width="121" height="36" viewBox="0 0 121 36" fill="none" xmlns="http://www.w3.org/2000/svg"><g clip-path="url(#clip0_0_64)"><path d="M0 4.8C0 2.149 2.141 0 4.783 0h111.434C118.859 0 121 2.149 121 4.8v26.4c0 2.651-2.141 4.8-4.783 4.8H4.783C2.14 36 0 33.851 0 31.2V4.8z" fill="#000"/><path fill-rule="evenodd" clip-rule="evenodd" d="M0 31.2V4.8C0 2.149 2.141 0 4.783 0h111.434C118.859 0 121 2.149 121 4.8v26.4c0 2.651-2.141 4.8-4.783 4.8H4.783C2.14 36 0 33.851 0 31.2zm.717 0V4.8c0-2.253 1.82-4.08 4.066-4.08h111.434a4.073 4.073 0 014.066 4.08v26.4c0 2.253-1.82 4.08-4.066 4.08H4.783A4.073 4.073 0 01.717 31.2z" fill="#fff" fill-opacity=".3"/><path d="M27.343 18.733c-.012-2.11.94-3.7 2.864-4.873-1.076-1.546-2.703-2.397-4.849-2.561-2.031-.161-4.254 1.188-5.068 1.188-.86 0-2.826-1.133-4.374-1.133-3.193.05-6.587 2.556-6.587 7.654 0 1.507.274 3.063.823 4.666.734 2.11 3.378 7.28 6.137 7.196 1.443-.034 2.463-1.027 4.34-1.027 1.822 0 2.765 1.027 4.375 1.027 2.783-.04 5.175-4.74 5.872-6.856-3.733-1.766-3.533-5.173-3.533-5.28zm-3.24-9.436c1.563-1.862 1.421-3.558 1.375-4.167-1.38.08-2.977.943-3.887 2.005-1.002 1.138-1.59 2.546-1.464 4.133 1.492.114 2.855-.656 3.976-1.97zM44.18 26.052h-1.583l-.867-2.748h-3.014l-.827 2.748h-1.541l2.986-9.355h1.845l3.001 9.355zm-2.712-3.901l-.784-2.443c-.083-.25-.238-.837-.468-1.762h-.028c-.09.398-.238.986-.44 1.762l-.77 2.443h2.49zm10.392.445c0 1.147-.307 2.054-.922 2.72-.55.592-1.234.888-2.05.888-.882 0-1.515-.32-1.9-.957h-.028V28.8h-1.486v-7.273c0-.722-.02-1.462-.055-2.22h1.307l.083 1.068h.027c.496-.805 1.248-1.207 2.258-1.207.789 0 1.448.314 1.975.943.528.63.792 1.458.792 2.485zm-1.514.055c0-.657-.146-1.198-.44-1.624-.321-.444-.753-.666-1.294-.666-.367 0-.7.123-.998.367a1.708 1.708 0 00-.584.965c-.046.186-.07.338-.07.457v1.125c0 .49.15.905.448 1.243.298.338.686.506 1.163.506.56 0 .995-.217 1.307-.652.312-.435.468-1.009.468-1.721zm9.209-.055c0 1.147-.307 2.054-.923 2.72-.55.592-1.233.888-2.05.888-.881 0-1.514-.32-1.899-.957h-.028V28.8H53.17v-7.273a46.4 46.4 0 00-.055-2.22h1.307l.083 1.068h.028c.495-.805 1.247-1.207 2.257-1.207.789 0 1.447.314 1.976.943.526.63.79 1.458.79 2.485zm-1.514.055c0-.657-.147-1.198-.44-1.624-.322-.444-.752-.666-1.294-.666-.368 0-.7.123-.998.367a1.706 1.706 0 00-.585.965 2.042 2.042 0 00-.069.457v1.125c0 .49.15.905.446 1.243.299.337.687.506 1.165.506.56 0 .995-.217 1.307-.652.312-.435.468-1.009.468-1.721zm10.117.777c0 .796-.274 1.444-.824 1.943-.604.546-1.445.82-2.527.82-.998 0-1.799-.195-2.404-.584l.344-1.249a4.049 4.049 0 002.149.598c.56 0 .995-.128 1.308-.383.312-.254.468-.596.468-1.022 0-.38-.129-.699-.386-.958-.256-.26-.683-.5-1.28-.724-1.624-.61-2.436-1.505-2.436-2.682 0-.77.285-1.4.854-1.89.568-.492 1.325-.737 2.271-.737.845 0 1.546.148 2.106.444l-.372 1.222c-.523-.287-1.114-.43-1.776-.43-.522 0-.93.13-1.224.389a1.115 1.115 0 00-.371.847c0 .37.141.675.426.916.247.222.697.462 1.35.721.798.324 1.384.703 1.761 1.138.376.433.563.975.563 1.621zm4.914-2.997h-1.638v3.275c0 .833.289 1.25.867 1.25.266 0 .486-.024.66-.07l.042 1.138c-.293.11-.679.165-1.156.165-.587 0-1.046-.18-1.377-.54-.33-.362-.496-.968-.496-1.82v-3.4h-.976v-1.124h.976V18.07l1.46-.444v1.679h1.638v1.126zm7.392 2.192c0 1.037-.294 1.888-.88 2.554-.616.685-1.434 1.027-2.452 1.027-.982 0-1.763-.328-2.346-.985-.583-.656-.874-1.485-.874-2.484 0-1.045.3-1.901.901-2.567.6-.666 1.41-1 2.429-1 .982 0 1.771.329 2.368.986.57.637.854 1.46.854 2.47zm-1.542.049c0-.622-.132-1.156-.398-1.6-.312-.54-.758-.808-1.335-.808-.597 0-1.051.27-1.363.807-.267.446-.398.988-.398 1.629 0 .622.131 1.156.398 1.6.322.538.77.807 1.35.807.567 0 1.013-.274 1.334-.821.274-.454.412-.993.412-1.614zm6.373-2.048a2.56 2.56 0 00-.468-.041c-.523 0-.927.199-1.212.597-.247.352-.371.796-.371 1.332v3.54h-1.486l.014-4.622c0-.777-.019-1.485-.056-2.123h1.295l.054 1.29h.041c.157-.443.405-.8.744-1.068.33-.241.688-.361 1.074-.361.137 0 .261.01.371.027v1.43zm6.647 1.736c0 .268-.017.495-.054.68H87.43c.017.666.233 1.176.647 1.527.376.314.862.472 1.459.472.66 0 1.262-.106 1.804-.32l.232 1.041c-.632.278-1.38.417-2.242.417-1.037 0-1.852-.308-2.444-.923-.592-.615-.888-1.441-.888-2.477 0-1.017.276-1.864.827-2.54.577-.721 1.357-1.082 2.339-1.082.964 0 1.694.36 2.19 1.082.392.573.59 1.282.59 2.123zm-1.417-.389c.01-.444-.087-.828-.288-1.152-.258-.417-.653-.625-1.185-.625-.486 0-.881.203-1.183.611a2.248 2.248 0 00-.44 1.166h3.096zM37.88 10.789h.766c.74 0 1.173.334 1.173.896v.008c0 .52-.456.862-1.15.862-.71 0-1.163-.281-1.223-.78l-.003-.03h-.819l.004.045c.056.893.848 1.5 2.04 1.5 1.155 0 2.007-.667 2.007-1.56v-.008c0-.727-.445-1.24-1.166-1.33v-.03A1.264 1.264 0 0040.51 9.12v-.007c0-.837-.74-1.414-1.823-1.414-1.129 0-1.865.558-1.92 1.473l-.005.053h.804l.003-.053c.064-.465.457-.738 1.092-.738.646 0 1.02.289 1.02.769v.007c0 .517-.415.874-1.058.874h-.743v.705zm5.5 2.482c.524 0 .976-.27 1.204-.694h.019v.623h.807v-2.72c0-.791-.61-1.301-1.57-1.301-.967 0-1.554.521-1.61 1.2l-.004.041h.763l.007-.034c.067-.315.355-.536.822-.536.5 0 .785.263.785.698v.296l-1.073.064c-.93.056-1.46.476-1.46 1.162v.008c0 .708.526 1.192 1.31 1.192zm-.496-1.211v-.008c0-.333.269-.547.755-.577l.964-.06v.307c0 .514-.434.9-1.002.9-.433 0-.717-.217-.717-.562zm6.824-2.16v-.645h-2.605V13.2h.807V9.9h1.798zm1.518 4.612h.807v-1.976h.018c.232.458.684.743 1.24.743.987 0 1.634-.792 1.634-2.048v-.004c0-1.26-.643-2.047-1.644-2.047-.56 0-.994.285-1.23.754h-.018v-.68h-.807v5.258zm1.845-1.93c-.609 0-1.042-.533-1.042-1.35v-.005c0-.82.43-1.353 1.042-1.353.636 0 1.032.513 1.032 1.353v.004c0 .833-.397 1.35-1.032 1.35zm3.749 1.934c.77 0 1.18-.315 1.472-1.132l1.465-4.13h-.852l-.99 3.21h-.026l-.99-3.21h-.875l1.431 3.95-.067.187c-.134.383-.344.484-.725.484-.108 0-.202-.015-.265-.03v.634c.097.018.265.037.422.037zm5.71-1.237c.964 0 1.603-.492 1.603-1.227v-.007c0-.461-.284-.776-.803-.881v-.03c.422-.098.695-.432.695-.855v-.008c0-.675-.553-1.091-1.457-1.091-.886 0-1.465.42-1.558 1.121l-.004.03h.77l.003-.026c.06-.3.355-.484.777-.484.426 0 .68.199.68.536v.008c0 .352-.242.532-.717.532h-.564v.59h.568c.545 0 .807.18.807.558v.007c0 .36-.306.582-.803.582-.445 0-.736-.173-.826-.492l-.011-.037h-.792l.003.034c.079.697.71 1.14 1.63 1.14zm3.155-.079h.796l1.804-2.771h.034v2.77h.803V9.256h-.796l-1.804 2.76h-.038v-2.76h-.799V13.2zm8.135-3.945h-3.27V9.9h1.23v3.3h.81V9.9h1.23v-.645zm3.035 4.024c.953 0 1.562-.57 1.685-1.197l.011-.04h-.77l-.01.03c-.101.295-.419.543-.897.543-.643 0-1.05-.435-1.065-1.181h2.784v-.274c0-1.185-.677-1.98-1.779-1.98-1.102 0-1.812.825-1.812 2.059v.003c0 1.245.699 2.037 1.853 2.037zm-.037-3.435c.527 0 .912.333.975 1.016H75.82c.075-.66.475-1.016.998-1.016zm5.707 3.356h1.809c.852 0 1.382-.443 1.382-1.133v-.007c0-.484-.336-.836-.844-.904v-.03c.377-.071.669-.442.669-.851v-.008c0-.626-.464-1.012-1.23-1.012h-1.786V13.2zm.8-2.318V9.855h.818c.389 0 .598.176.598.502v.008c0 .349-.224.517-.68.517h-.736zm0 1.718v-1.13h.766c.53 0 .796.176.796.555v.008c0 .375-.247.566-.703.566h-.859z" fill="#fff"/></g><defs><clipPath id="clip0_0_64"><path fill="#fff" d="M0 0h121v36H0z"/></clipPath></defs></svg>
